!!!COM: Anon.
!!!OCL: Francis James Child
!!!OPR: The English and Scottish Popular Ballads
!!!OVM: Vol. 1
!!!ONB: Ballad No. 24, Tune No. 1
!!!ONM: No. 24
!!!PDT: 1882
!!!YEM: Public domain.
**kern
*M3/4
*C:
{4g
=1
4cc
4ee
4dd
=2
4cc
4g
4g
=3
4a
4f
8cc
8a
=4
4g
4e}
!! Second phrase:
{4e
=5
4.g
8g
8a
8f
=6
8g
8ee
4.ff
8ee
=7
4dd
4a
4b
=8
4dd
4cc}
====
*-
!!!OCY: Britain; England
!!!PPP: Boston
!!!ODT: <1882
!!!AFR: folk song
!!!AST: monophony
!!!AMT: simple triple
!!!SCA: Child Collection
!!!AIN: vox
!!!EEV: 1.0
!!!RDT: 1987 June
!!!YER: 1994 August 10
!!!VTS: 652652838
